priv/static/svgs/icons_new/software-bug.svg

<svg width="32" height="32" viewBox="0 0 32 32" fill="none" xmlns="http://www.w3.org/2000/svg">
<path d="M21.793 13.3105C21.5184 13.3399 21.3196 13.5862 21.349 13.8608C21.3783 14.1354 21.6247 14.3342 21.8993 14.3049L21.793 13.3105ZM26 10.1538C26 9.8777 25.7761 9.65385 25.5 9.65385C25.2239 9.65385 25 9.8777 25 10.1538H26ZM10.1007 14.3049C10.3753 14.3342 10.6217 14.1354 10.651 13.8608C10.6804 13.5862 10.4816 13.3399 10.207 13.3105L10.1007 14.3049ZM7 10.1538C7 9.8777 6.77614 9.65385 6.5 9.65385C6.22386 9.65385 6 9.8777 6 10.1538H7ZM21.8887 21.348C21.6136 21.3244 21.3715 21.5284 21.348 21.8036C21.3244 22.0787 21.5284 22.3208 21.8036 22.3443L21.8887 21.348ZM25 24.7692C25 25.0454 25.2239 25.2692 25.5 25.2692C25.7761 25.2692 26 25.0454 26 24.7692H25ZM10.1964 22.3443C10.4716 22.3208 10.6756 22.0787 10.652 21.8036C10.6285 21.5284 10.3864 21.3244 10.1113 21.348L10.1964 22.3443ZM6 24.7692C6 25.0454 6.22386 25.2692 6.5 25.2692C6.77614 25.2692 7 25.0454 7 24.7692H6ZM9.42308 17.9615C9.69922 17.9615 9.92308 17.7377 9.92308 17.4615C9.92308 17.1854 9.69922 16.9615 9.42308 16.9615V17.9615ZM7.23077 16.9615C6.95463 16.9615 6.73077 17.1854 6.73077 17.4615C6.73077 17.7377 6.95463 17.9615 7.23077 17.9615V16.9615ZM22.5769 16.9615C22.3008 16.9615 22.0769 17.1854 22.0769 17.4615C22.0769 17.7377 22.3008 17.9615 22.5769 17.9615V16.9615ZM24.7692 17.9615C25.0454 17.9615 25.2692 17.7377 25.2692 17.4615C25.2692 17.1854 25.0454 16.9615 24.7692 16.9615V17.9615ZM15.5001 21.011C15.5001 21.2872 15.7239 21.511 16.0001 21.511C16.2762 21.511 16.5001 21.2872 16.5001 21.011L15.5001 21.011ZM16.5001 14.7473C16.5001 14.4711 16.2762 14.2473 16.0001 14.2473C15.724 14.2473 15.5001 14.4711 15.5001 14.7473L16.5001 14.7473ZM18.4231 9.42308V10.8846H19.4231V9.42308H18.4231ZM13.5769 10.8846V9.42308H12.5769V10.8846H13.5769ZM16 7C17.3382 7 18.4231 8.08485 18.4231 9.42308H19.4231C19.4231 7.53256 17.8905 6 16 6V7ZM16 6C14.1095 6 12.5769 7.53257 12.5769 9.42308H13.5769C13.5769 8.08485 14.6618 7 16 7V6ZM21.8993 14.3049C24.8626 13.9882 26 11.5748 26 10.1538H25C25 11.1691 24.1496 13.0587 21.793 13.3105L21.8993 14.3049ZM10.207 13.3105C7.85038 13.0587 7 11.1691 7 10.1538H6C6 11.5748 7.13743 13.9882 10.1007 14.3049L10.207 13.3105ZM21.8036 22.3443C24.2445 22.553 25 24.0924 25 24.7692H26C26 23.4971 24.7677 21.5941 21.8887 21.348L21.8036 22.3443ZM10.1113 21.348C7.23232 21.5941 6 23.4971 6 24.7692H7C7 24.0924 7.75549 22.553 10.1964 22.3443L10.1113 21.348ZM9.42308 16.9615H7.23077V17.9615H9.42308V16.9615ZM22.5769 17.9615H24.7692V16.9615H22.5769V17.9615ZM13.4277 11.3846H18.5724V10.3846H13.4277V11.3846ZM21.3462 14.1584V19.6538H22.3462V14.1584H21.3462ZM10.6538 19.6538V14.1584H9.65385V19.6538H10.6538ZM16 25C13.0474 25 10.6538 22.6064 10.6538 19.6538H9.65385C9.65385 23.1587 12.4951 26 16 26V25ZM21.3462 19.6538C21.3462 22.6064 18.9526 25 16 25V26C19.5049 26 22.3462 23.1587 22.3462 19.6538H21.3462ZM18.5724 11.3846C20.1043 11.3846 21.3462 12.6265 21.3462 14.1584H22.3462C22.3462 12.0742 20.6566 10.3846 18.5724 10.3846V11.3846ZM13.4277 10.3846C11.3434 10.3846 9.65385 12.0742 9.65385 14.1584H10.6538C10.6538 12.6265 11.8957 11.3846 13.4277 11.3846V10.3846ZM16.5001 21.011L16.5001 14.7473L15.5001 14.7473L15.5001 21.011L16.5001 21.011Z" fill="black"/>
</svg>

<svg width="32" height="32" viewBox="0 0 32 32" fill="none" xmlns="http://www.w3.org/2000/svg">
  <symbol id="item" viewBox="0 0 32 32"  fill="none">
    <path d="M21.793 13.31a.5.5 0 1 0 .106.995l-.106-.995ZM26 10.154a.5.5 0 0 0-1 0h1Zm-15.9 4.15a.5.5 0 0 0 .107-.994l-.106.995ZM7 10.155a.5.5 0 0 0-1 0h1Zm14.889 11.194a.5.5 0 1 0-.085.996l.085-.996ZM25 24.769a.5.5 0 1 0 1 0h-1Zm-14.804-2.425a.5.5 0 1 0-.085-.996l.085.996ZM6 24.77a.5.5 0 1 0 1 0H6Zm3.423-6.807a.5.5 0 1 0 0-1v1Zm-2.192-1a.5.5 0 0 0 0 1v-1Zm15.346 0a.5.5 0 0 0 0 1v-1Zm2.192 1a.5.5 0 1 0 0-1v1ZM15.5 21.01a.5.5 0 1 0 1 0h-1Zm1-6.264a.5.5 0 1 0-1 0h1Zm1.923-5.324v1.462h1V9.423h-1Zm-4.846 1.462V9.423h-1v1.462h1ZM16 7a2.423 2.423 0 0 1 2.423 2.423h1A3.423 3.423 0 0 0 16 6v1Zm0-1a3.423 3.423 0 0 0-3.423 3.423h1A2.423 2.423 0 0 1 16 7V6Zm5.9 8.305c2.963-.317 4.1-2.73 4.1-4.151h-1c0 1.015-.85 2.905-3.207 3.156l.106.995Zm-11.693-.995C7.85 13.06 7 11.17 7 10.154H6c0 1.42 1.137 3.834 4.1 4.15l.107-.994Zm11.597 9.034c2.44.209 3.196 1.748 3.196 2.425h1c0-1.272-1.232-3.175-4.111-3.421l-.085.996Zm-11.693-.996C7.232 21.594 6 23.498 6 24.769h1c0-.677.755-2.216 3.196-2.425l-.085-.996Zm-.688-4.386H7.231v1h2.192v-1Zm13.154 1h2.192v-1h-2.192v1Zm-9.15-6.577h5.145v-1h-5.144v1Zm7.92 2.773v5.496h1v-5.496h-1Zm-10.693 5.496v-5.496h-1v5.496h1ZM16 25a5.346 5.346 0 0 1-5.346-5.346h-1A6.346 6.346 0 0 0 16 26v-1Zm5.346-5.346A5.346 5.346 0 0 1 16 25v1a6.346 6.346 0 0 0 6.346-6.346h-1Zm-2.774-8.27a2.774 2.774 0 0 1 2.774 2.774h1a3.774 3.774 0 0 0-3.774-3.773v1Zm-5.144-1a3.774 3.774 0 0 0-3.774 3.774h1a2.774 2.774 0 0 1 2.774-2.773v-1ZM16.5 21.012v-6.264h-1v6.264h1Z" fill="currentColor"/>
  </symbol>
</svg>
